X:12
T:Young May Moon,The. JBu.12
O:England,South Yorkshire
S:Joshua Burnett’s MS,c1835,S.Yorkshire
M:6/8
L:1/8
Q:3/8=120
R:jig
N:Key G given in MS but should perhaps be C
Z:vmp.R.Greig.2010
K:C
G|”Key sig.G in MS”c2cc2G|A2GG2G|c2c dcd|e2c cde|
f2fe2e|dec B2G|AGF EFG|A2GG2:|
|:z”rest added”|g2a gec|a2ag3|g2a gec|B2cd3|
g2a gec|a2ag2G|AGF EFG|A2cc2:|

